X: 1
T: Broome, the Bonny Bonny Broome    [F]
R: march
O: Playford 1651
B: Playford v.1 1651
B: "FIFTY OLD ENGLISH FOLK DANCE AIRS", Edgar H. Hunt ed., Schott & Co. Ltd. pub., London 1939
Z: 2004-2014 John Chambers <jc:trillian.mit.edu>
M: 2/2
L: 1/8
K: F
% - - - - - - - - - - - - - - - - - - - - - - - - - - - - - - - - - -
|:\
"F"[c3A3][dB] [c3A3][dB] | "(C7)"[cA][BG][AF][GE] "F"[F4C4] |\
"Dm"[f2d2][fd][ge] [af][ge][fd][ec] | "Bb"[d6B6] "C7"[e2c2B2] |
|\
"F"[f3A3][gB] [a2c2][gB][ac] | "Dm"[f2A2] [FD][GE] "F"[A2F2][GE][FD] |\
"Gm"[G2D2][G2D2] [d3B3][BG] | "C"[G6E6] z2 :|
% - - - - - - - - - - - - Dance description - - - - - - - - - - - - -
% %sep 3 3 500
% %begintext align
% % Lead up all a D. forwards and back, the first foure cast off and come to your places, the last foure doe the like .|
% % Lead downe and as much :| First and 3. Cu. meet and goe back, hands and goe round .:| The other foure as
% % much :|:|
% %endtext
% %sep 3 3 500
% %begintext align
% % Sides all, set and turn S. .| That againe :| The two first men hands and change places, and the last two men
% % change, We. doing the same, set and turne S. .| All that againe .:|
% %endtext
% %sep 3 3 500
% %begintext align
% % Armes all, set and turne S. .| That againe :| The 2. and 3. on each side leade to each wall, while the first Cu.
% % lead up and the last lead downe : change hands and meet; hands all and halfe round .:| all that againe :|:|
% %endtext
% - - - - - - - - - - - - - - - - - - - - - - - - - - - - - - - - - -

%%sep 2 1 500

